X:1
T: Mrs Charles Sutherland
C:J. Murdoch Henderson
R:Strathspey
Q: 128
K:E
M:4/4
L:1/16
|:E4 E3c BG3 G3F|E3B G3B ((3g2f2e2) ((3e2f2g2) |fB3 df3 B3f d3f|((3a2g2f2) ((3g2f2e2) f3B db3|
E4 E3c BG3 G3F|E3B G3B ((3e2B2A2) ((3G2F2E2) |A3G A3B ((3c2d2e2) ((3e2f2g2) |fB3 db3 ge3 e2a2|
((3g2f2e2) b3e g3e be3|b3e g3e ((3e2B2A2) ((3G2F2E2) |dB3 f3B a3B f3g|a3g f3e ((3d2c2B2) ((3c2d2e2) |
ge3 b3e g3e b3e|b3e g3e ((3e2B2A2) ((3G2F2E2) |A3G A3B ((3c2d2e2) ((3e2f2g2) |fB3 db3 ge3 e4:|
